src/assets/images/ic_unpin.svg

<?xml version="1.0" encoding="UTF-8"?>
<svg width="18px" height="18px" viewBox="0 0 1024 1024" version="1.1" xmlns="http://www.w3.org/2000/svg" xmlns:xlink="http://www.w3.org/1999/xlink">
    <g  stroke="none" stroke-width="1" fill="none" fill-rule="evenodd">
        <path d="M331.818182,93.0909091 L238.727273,93.0909091 L238.727273,0 L797.272727,0 L797.272727,93.0909091 L704.181818,93.0909091 L704.181818,319.53547 C817.097957,379.127367 890.363636,496.977729 890.363636,628.363636 L890.363636,641.649646 L786.398566,554.412593 C764.532729,481.866023 711.16025,421.756514 639.721337,391.965067 L611.090909,380.025609 L611.090909,93.0909091 L424.909091,93.0909091 L424.909091,251.086908 L331.818182,172.974361 L331.818182,93.0909091 Z M564.545455,674.909091 L564.545455,1024 L471.454545,1024 L471.454545,674.909091 L145.636364,674.909091 L145.636364,628.363636 C145.636364,523.651776 192.172976,427.537372 268.229426,362.660162 L340.916104,423.651527 C290.027561,461.918991 254.684679,518.224971 242.968633,581.818182 L529.411784,581.818182 L640.353209,674.909091 L564.545455,674.909091 Z M35.9188415,106.96766 L95.7565244,35.6558868 L987.153695,783.626924 L927.316012,854.938697 L35.9188415,106.96766 Z"  fill="#ffffff" fill-rule="nonzero"></path>
    </g>
</svg>

<svg width="18" height="18" viewBox="0 0 1024 1024" xmlns="http://www.w3.org/2000/svg"><path d="M331.818 93.09h-93.09V0h558.545v93.09h-93.091v226.445c112.916 59.592 186.182 177.443 186.182 308.829v13.286l-103.965-87.237c-21.866-72.547-75.239-132.656-146.678-162.448l-28.63-11.94V93.092H424.909v157.996l-93.09-78.113V93.091zm232.727 581.82V1024h-93.09V674.91H145.636v-46.546c0-104.712 46.537-200.827 122.593-265.704l72.687 60.992c-50.888 38.267-86.231 94.573-97.947 158.166h286.443l110.941 93.091h-75.808zM35.92 106.967l59.838-71.312 891.397 747.97-59.838 71.313L35.919 106.968z" fill="#fff" fill-rule="nonzero"/></svg>
